tn/ppt.svg

<svg viewBox="0 0 15 15" fill="none" xmlns="http://www.w3.org/2000/svg" height="1em" width="1em">
  <path d="M3 8H3.5C3.77614 8 4 7.77614 4 7.5C4 7.22386 3.77614 7 3.5 7H3V8Z" fill="black"/>
  <path d="M7 8H7.5C7.77614 8 8 7.77614 8 7.5C8 7.22386 7.77614 7 7.5 7H7V8Z" fill="black"/>
  <path fill-rule="evenodd" clip-rule="evenodd" d="M1 1.5C1 0.671573 1.67157 0 2.5 0H10.7071L14 3.29289V13.5C14 14.3284 13.3284 15 12.5 15H2.5C1.67157 15 1 14.3284 1 13.5V1.5ZM2 6H3.5C4.32843 6 5 6.67157 5 7.5C5 8.32843 4.32843 9 3.5 9H3V11H2V6ZM6 6H7.5C8.32843 6 9 6.67157 9 7.5C9 8.32843 8.32843 9 7.5 9H7V11H6V6ZM11 11H12V7H13V6H10V7H11V11Z" fill="black"/>
</svg>

<svg viewBox="0 0 15 15" fill="none" xmlns="http://www.w3.org/2000/svg" height="1em" width="1em">
  <path d="M3 8h.5a.5.5 0 0 0 0-1H3v1Zm4 0h.5a.5.5 0 0 0 0-1H7v1Z" fill="#000"/>
  <path fill-rule="evenodd" clip-rule="evenodd" d="M1 1.5A1.5 1.5 0 0 1 2.5 0h8.207L14 3.293V13.5a1.5 1.5 0 0 1-1.5 1.5h-10A1.5 1.5 0 0 1 1 13.5v-12ZM2 6h1.5a1.5 1.5 0 1 1 0 3H3v2H2V6Zm4 0h1.5a1.5 1.5 0 1 1 0 3H7v2H6V6Zm5 5h1V7h1V6h-3v1h1v4Z" fill="#000"/>
</svg>
